X:1949
T:Fields O' Foula, Da
O:england
D:The Boys of the Lough, Da Day Dawn
N:A 6/8 tune from Foula
M:6/8
L:1/8
K:D
g|f2 g afd|g2 f e2 g|f2 g afd|fga f2 d|f2 g afd|
g2 f e2 A|ABA def|d3 d2::B|ABA F2 A|d2 f|ecA|def ecA|
BAF DEF|EEE F2 A|d2 f ecA|def ecA|d3 d2:|]


